X: 14
T: Franc A'Phoill
Z: UPipes & harp
S: https://thesession.org/tunes/31#setting51021
R: jig
M: 6/8
L: 1/8
K: Dmaj
|:A2D B2D|A2G FED|A2D B2D|GFG AFD|
A2D B2D|A2G FED|GAB =cAF|~G3 AFD:|
|:dfa afd|def e=cA|GAB =cAF|GFG AFD|
dfa afa|geg fdA|GAB =cAF|~G3 AFD:|
|:d2e d2A|d2e d=cA|d2e d=cA|GFG AFD|
d2e d2A|d2e d=cA|GAB =cAF|~G3 AFD:|
|:def def|def ecA|def ecA|GFG AFD|
def d2A|def ecA|GAB =cAF|~G3 AFD:|
|:dDD =cDD|BDD ADD|dDD =cDD|GFG AFD|
dDD =cDD|BDD ADD|GAB =cAF|~G3 AFD:|

